; generated by Slic3r 1.3.0 on 2022-02-02 at 14:33:06

; external perimeters extrusion width = 0.55mm (4.37mm^3/s)
; perimeters extrusion width = 0.70mm (11.44mm^3/s)
; infill extrusion width = 0.62mm (13.45mm^3/s)
; solid infill extrusion width = 0.70mm (3.81mm^3/s)
; top infill extrusion width = 0.70mm (2.86mm^3/s)
; support material extrusion width = 0.55mm (8.74mm^3/s)

M107
M104 S205 ; set temperature
G28 ; home all axes
G1 Z5 F5000 ; lift nozzle

; Filament gcode

M109 S205 ; set temperature and wait for it to be reached
G21 ; set units to millimeters
G90 ; use absolute coordinates
M82 ; use absolute distances for extrusion
G92 E0
G1 Z0.350 F7800.000
G1 E-2.00000 F2400.00000
G92 E0
G1 X101.391 Y54.391 F7800.000
G1 E2.00000 F2400.00000
G1 F1800
G1 X102.390 Y53.475 E2.04194
G1 X102.892 Y53.062 E2.06206
G1 X103.720 Y52.448 E2.09394
G1 X104.261 Y52.087 E2.11406
G1 X105.144 Y51.557 E2.14594
G1 X105.718 Y51.251 E2.16605
G1 X106.649 Y50.810 E2.19794
G1 X107.250 Y50.562 E2.21805
G1 X108.220 Y50.215 E2.24994
G1 X108.841 Y50.026 E2.27002
G1 X109.842 Y49.775 E2.30194
G1 X110.479 Y49.649 E2.32204
G1 X111.499 Y49.497 E2.35393
G1 X112.145 Y49.434 E2.37404
G1 X113.175 Y49.383 E2.40593
G1 X133.500 Y49.375 E3.03482
G1 X134.854 Y49.434 E3.07676
G1 X135.501 Y49.497 E3.09686
G1 X136.521 Y49.649 E3.12876
G1 X137.158 Y49.775 E3.14887
G1 X138.158 Y50.026 E3.18075
G1 X138.779 Y50.214 E3.20085
G1 X139.750 Y50.562 E3.23275
G1 X140.351 Y50.810 E3.25287
G1 X141.282 Y51.251 E3.28475
G1 X141.856 Y51.557 E3.30487
G1 X142.739 Y52.087 E3.33675
G1 X143.280 Y52.448 E3.35685
G1 X144.108 Y53.062 E3.38875
G1 X144.610 Y53.474 E3.40885
G1 X145.374 Y54.167 E3.44075
G1 X145.833 Y54.626 E3.46086
G1 X146.526 Y55.391 E3.49280
G1 X146.938 Y55.892 E3.51286
G1 X147.552 Y56.720 E3.54475
G1 X147.913 Y57.261 E3.56486
G1 X148.443 Y58.144 E3.59674
G1 X148.749 Y58.718 E3.61686
G1 X149.190 Y59.649 E3.64874
G1 X149.438 Y60.250 E3.66886
G1 X149.785 Y61.220 E3.70074
G1 X149.974 Y61.842 E3.72086
G1 X150.225 Y62.842 E3.75276
G1 X150.351 Y63.479 E3.77286
G1 X150.503 Y64.499 E3.80474
G1 X150.566 Y65.146 E3.82485
G1 X150.625 Y66.500 E3.86680
G1 X150.617 Y86.825 E4.49568
G1 X150.566 Y87.854 E4.52756
G1 X150.503 Y88.501 E4.54768
G1 X150.351 Y89.522 E4.57960
G1 X150.225 Y90.158 E4.59968
G1 X149.974 Y91.158 E4.63156
G1 X149.785 Y91.780 E4.65168
G1 X149.438 Y92.751 E4.68358
G1 X149.190 Y93.351 E4.70367
G1 X148.749 Y94.282 E4.73556
G1 X148.443 Y94.856 E4.75567
G1 X147.912 Y95.740 E4.78758
G1 X147.552 Y96.280 E4.80767
G1 X146.938 Y97.108 E4.83956
G1 X146.525 Y97.610 E4.85967
G1 X145.609 Y98.609 E4.90161
G1 X98.609 Y145.609 E6.95822
G1 X97.610 Y146.525 E7.00016
G1 X97.108 Y146.938 E7.02028
G1 X96.280 Y147.552 E7.05216
G1 X95.740 Y147.912 E7.07225
G1 X94.856 Y148.443 E7.10416
G1 X94.282 Y148.749 E7.12428
G1 X93.351 Y149.190 E7.15616
G1 X92.751 Y149.438 E7.17625
G1 X91.780 Y149.785 E7.20816
G1 X91.158 Y149.974 E7.22827
G1 X90.158 Y150.225 E7.26016
G1 X89.522 Y150.351 E7.28023
G1 X88.501 Y150.503 E7.31215
G1 X87.854 Y150.566 E7.33227
G1 X86.825 Y150.617 E7.36415
G1 X66.500 Y150.625 E7.99304
G1 X65.146 Y150.566 E8.03498
G1 X64.499 Y150.503 E8.05509
G1 X63.479 Y150.351 E8.08698
G1 X62.842 Y150.225 E8.10707
G1 X61.842 Y149.974 E8.13898
G1 X61.220 Y149.785 E8.15909
G1 X60.250 Y149.438 E8.19098
G1 X59.649 Y149.190 E8.21109
G1 X58.718 Y148.749 E8.24297
G1 X58.144 Y148.443 E8.26309
G1 X57.261 Y147.913 E8.29497
G1 X56.720 Y147.552 E8.31509
G1 X55.892 Y146.938 E8.34697
G1 X55.391 Y146.526 E8.36704
G1 X54.626 Y145.833 E8.39897
G1 X54.167 Y145.374 E8.41909
G1 X53.474 Y144.610 E8.45098
G1 X53.062 Y144.108 E8.47108
G1 X52.448 Y143.280 E8.50298
G1 X52.087 Y142.739 E8.52308
G1 X51.557 Y141.856 E8.55497
G1 X51.251 Y141.282 E8.57508
G1 X50.810 Y140.351 E8.60696
G1 X50.562 Y139.750 E8.62708
G1 X50.217 Y138.787 E8.65873
G1 X50.026 Y138.158 E8.67908
G1 X49.775 Y137.158 E8.71096
G1 X49.649 Y136.521 E8.73108
G1 X49.497 Y135.501 E8.76297
G1 X49.434 Y134.854 E8.78308
G1 X49.375 Y133.500 E8.82502
G1 X49.383 Y113.175 E9.45390
G1 X49.434 Y112.145 E9.48579
G1 X49.497 Y111.499 E9.50590
G1 X49.649 Y110.479 E9.53780
G1 X49.775 Y109.842 E9.55790
G1 X50.026 Y108.841 E9.58981
G1 X50.215 Y108.220 E9.60990
G1 X50.562 Y107.250 E9.64178
G1 X50.810 Y106.649 E9.66190
G1 X51.251 Y105.718 E9.69378
G1 X51.557 Y105.144 E9.71389
G1 X52.087 Y104.261 E9.74578
G1 X52.448 Y103.720 E9.76589
G1 X53.062 Y102.892 E9.79778
G1 X53.475 Y102.390 E9.81789
G1 X54.391 Y101.391 E9.85983
G1 X101.338 Y54.444 E11.91412
G1 E9.91412 F2400.00000
G92 E0
G1 X133.212 Y76.500 F7800.000
G1 E2.00000 F2400.00000
G1 F1800
G1 X129.855 Y77.701 E2.11031
G1 X129.010 Y78.101 E2.13923
G1 X128.209 Y78.581 E2.16814
G1 X127.458 Y79.138 E2.19706
G1 X126.766 Y79.766 E2.22598
G1 X126.138 Y80.458 E2.25490
G1 X125.581 Y81.209 E2.28382
G1 X125.101 Y82.010 E2.31274
G1 X124.701 Y82.855 E2.34166
G1 X123.500 Y86.212 E2.45197
G1 X122.299 Y82.855 E2.56227
G1 X121.899 Y82.010 E2.59119
G1 X121.419 Y81.209 E2.62011
G1 X120.862 Y80.458 E2.64903
G1 X120.234 Y79.766 E2.67795
G1 X119.542 Y79.138 E2.70687
G1 X118.791 Y78.581 E2.73579
G1 X117.990 Y78.101 E2.76470
G1 X117.145 Y77.701 E2.79362
G1 X113.788 Y76.500 E2.90393
G1 X117.145 Y75.299 E3.01424
G1 X117.990 Y74.899 E3.04316
G1 X118.791 Y74.419 E3.07207
G1 X119.542 Y73.862 E3.10099
G1 X120.234 Y73.234 E3.12991
G1 X120.862 Y72.542 E3.15883
G1 X121.419 Y71.791 E3.18775
G1 X121.899 Y70.990 E3.21666
G1 X122.301 Y70.139 E3.24578
G1 X123.500 Y66.788 E3.35589
G1 X124.701 Y70.145 E3.46620
G1 X125.101 Y70.990 E3.49512
G1 X125.581 Y71.791 E3.52404
G1 X126.138 Y72.542 E3.55296
G1 X126.766 Y73.234 E3.58188
G1 X127.458 Y73.862 E3.61080
G1 X128.209 Y74.419 E3.63971
G1 X129.010 Y74.899 E3.66863
G1 X129.855 Y75.299 E3.69755
G1 X133.141 Y76.475 E3.80554
G1 X131.357 Y76.500 F7800.000
G1 F1800
G1 X129.616 Y77.123 E3.86276
G1 X128.716 Y77.549 E3.89358
G1 X127.861 Y78.061 E3.92440
G1 X127.061 Y78.654 E3.95521
G1 X126.323 Y79.323 E3.98603
G1 X125.654 Y80.061 E4.01685
G1 X125.061 Y80.861 E4.04767
G1 X124.549 Y81.716 E4.07849
G1 X124.123 Y82.616 E4.10931
G1 X123.500 Y84.357 E4.16653
G1 X122.877 Y82.616 E4.22375
G1 X122.451 Y81.716 E4.25456
G1 X121.939 Y80.861 E4.28538
G1 X121.346 Y80.061 E4.31620
G1 X120.677 Y79.323 E4.34702
G1 X119.939 Y78.654 E4.37784
G1 X119.139 Y78.061 E4.40866
G1 X118.284 Y77.549 E4.43948
G1 X117.384 Y77.123 E4.47029
G1 X115.643 Y76.500 E4.52751
G1 X117.384 Y75.877 E4.58473
G1 X118.284 Y75.451 E4.61555
G1 X119.139 Y74.939 E4.64637
G1 X119.939 Y74.346 E4.67719
G1 X120.677 Y73.677 E4.70801
G1 X121.346 Y72.939 E4.73883
G1 X121.939 Y72.139 E4.76965
G1 X122.451 Y71.285 E4.80046
G1 X122.879 Y70.378 E4.83148
G1 X123.500 Y68.643 E4.88850
G1 X124.123 Y70.384 E4.94572
G1 X124.549 Y71.284 E4.97654
G1 X125.061 Y72.139 E5.00736
G1 X125.654 Y72.939 E5.03818
G1 X126.323 Y73.677 E5.06900
G1 X127.061 Y74.346 E5.09981
G1 X127.861 Y74.939 E5.13063
G1 X128.716 Y75.451 E5.16145
G1 X129.616 Y75.877 E5.19227
G1 X131.287 Y76.475 E5.24717
G1 X131.650 Y76.905 F7800.000
G1 E3.24717 F2400.00000
G92 E0
G1 X116.100 Y82.900 F7800.000
G1 E2.00000 F2400.00000
G1 F1800
G1 X116.100 Y84.360 E2.04518
G1 X117.119 Y84.461 E2.07685
G1 X117.852 Y84.853 E2.10258
G1 X118.379 Y85.495 E2.12831
G1 X118.621 Y86.291 E2.15404
G1 X118.539 Y87.119 E2.17977
G1 X118.147 Y87.852 E2.20550
G1 X117.505 Y88.379 E2.23122
G1 X116.709 Y88.621 E2.25695
G1 X116.100 Y88.561 E2.27589
G1 X116.100 Y90.100 E2.32351
G1 X110.900 Y90.100 E2.48439
G1 X110.900 Y88.640 E2.52956
G1 X109.881 Y88.539 E2.56124
G1 X109.148 Y88.147 E2.58697
G1 X108.621 Y87.505 E2.61270
G1 X108.379 Y86.709 E2.63843
G1 X108.461 Y85.881 E2.66416
G1 X108.853 Y85.148 E2.68988
G1 X109.495 Y84.621 E2.71561
G1 X110.291 Y84.379 E2.74134
G1 X110.900 Y84.439 E2.76028
G1 X110.900 Y82.900 E2.80789
G1 X116.025 Y82.900 E2.96645
G1 X115.475 Y83.525 F7800.000
G1 F1800
G1 X115.475 Y85.446 E3.02588
G1 X115.796 Y85.182 E3.03872
G1 X116.354 Y85.013 E3.05676
G1 X116.934 Y85.070 E3.07480
G1 X117.448 Y85.345 E3.09283
G1 X117.818 Y85.796 E3.11087
G1 X117.987 Y86.354 E3.12891
G1 X117.930 Y86.934 E3.14694
G1 X117.655 Y87.448 E3.16498
G1 X117.204 Y87.818 E3.18301
G1 X116.646 Y87.987 E3.20105
G1 X116.066 Y87.930 E3.21909
G1 X115.475 Y87.614 E3.23984
G1 X115.475 Y89.475 E3.29743
G1 X111.525 Y89.475 E3.41964
G1 X111.525 Y87.554 E3.47907
G1 X111.204 Y87.818 E3.49191
G1 X110.646 Y87.987 E3.50995
G1 X110.066 Y87.930 E3.52798
G1 X109.552 Y87.655 E3.54602
G1 X109.182 Y87.204 E3.56406
G1 X109.013 Y86.646 E3.58209
G1 X109.070 Y86.066 E3.60013
G1 X109.345 Y85.552 E3.61817
G1 X109.796 Y85.182 E3.63620
G1 X110.354 Y85.013 E3.65424
G1 X110.934 Y85.070 E3.67228
G1 X111.525 Y85.386 E3.69303
G1 X111.525 Y83.525 E3.75062
G1 X115.400 Y83.525 E3.87051
G1 X114.850 Y84.150 F7800.000
G1 F1800
G1 X114.850 Y88.850 E4.01593
G1 X112.150 Y88.850 E4.09948
G1 X112.150 Y84.150 E4.24490
G1 X114.775 Y84.150 E4.32612
G1 X115.320 Y83.979 F7800.000
G1 E2.32612 F2400.00000
G92 E0
G1 X111.256 Y86.096 F7800.000
G1 E2.00000 F2400.00000
G1 F1800
G1 X111.353 Y86.416 E2.01034
G1 X111.320 Y86.749 E2.02069
G1 X111.162 Y87.044 E2.03103
G1 X110.904 Y87.256 E2.04138
G1 X110.584 Y87.353 E2.05172
G1 X110.251 Y87.320 E2.06207
G1 X109.956 Y87.162 E2.07241
G1 X109.744 Y86.904 E2.08276
G1 X109.647 Y86.584 E2.09310
G1 X109.680 Y86.251 E2.10345
G1 X109.838 Y85.956 E2.11379
G1 X110.096 Y85.744 E2.12413
G1 X110.416 Y85.647 E2.13448
G1 X110.749 Y85.680 E2.14482
G1 X111.044 Y85.838 E2.15517
G1 X111.208 Y86.038 E2.16319
G1 X111.256 Y86.096 F7800.000
G1 E0.16319 F2400.00000
G92 E0
G1 X115.653 Y86.529 F7800.000
G1 E2.00000 F2400.00000
G1 F1800
G1 X115.680 Y86.251 E2.00864
G1 X115.838 Y85.956 E2.01898
G1 X116.096 Y85.744 E2.02933
G1 X116.416 Y85.647 E2.03967
G1 X116.749 Y85.680 E2.05002
G1 X117.044 Y85.838 E2.06036
G1 X117.256 Y86.096 E2.07071
G1 X117.353 Y86.416 E2.08105
G1 X117.320 Y86.749 E2.09140
G1 X117.162 Y87.044 E2.10174
G1 X116.904 Y87.256 E2.11208
G1 X116.584 Y87.353 E2.12243
G1 X116.251 Y87.320 E2.13277
G1 X115.956 Y87.162 E2.14312
G1 X115.744 Y86.904 E2.15346
G1 X115.653 Y86.603 E2.16319
G1 X115.400 Y86.410 F7800.000
G1 E0.16319 F2400.00000
G92 E0
G1 X122.103 Y88.837 F7800.000
G1 E2.00000 F2400.00000
G1 F1800
G1 X121.721 Y89.905 E2.03510
G1 X121.348 Y90.695 E2.06212
G1 X120.899 Y91.444 E2.08914
G1 X120.378 Y92.145 E2.11616
G1 X119.792 Y92.792 E2.14318
G1 X119.145 Y93.378 E2.17018
G1 X118.438 Y93.902 E2.19743
G1 X117.695 Y94.348 E2.22423
G1 X116.905 Y94.721 E2.25125
G1 X116.083 Y95.015 E2.27827
G1 X115.236 Y95.227 E2.30529
G1 X114.372 Y95.355 E2.33231
G1 X113.500 Y95.398 E2.35933
G1 X112.628 Y95.355 E2.38635
G1 X111.764 Y95.227 E2.41337
G1 X110.917 Y95.015 E2.44039
G1 X110.095 Y94.721 E2.46740
G1 X109.305 Y94.348 E2.49442
G1 X108.556 Y93.899 E2.52144
G1 X107.855 Y93.378 E2.54846
G1 X107.208 Y92.792 E2.57548
G1 X106.622 Y92.145 E2.60250
G1 X106.105 Y91.449 E2.62930
G1 X105.652 Y90.694 E2.65655
G1 X105.279 Y89.905 E2.68356
G1 X104.987 Y89.090 E2.71036
G1 X104.773 Y88.235 E2.73761
G1 X104.645 Y87.372 E2.76461
G1 X104.602 Y86.500 E2.79163
G1 X104.645 Y85.628 E2.81865
G1 X104.773 Y84.764 E2.84567
G1 X104.983 Y83.924 E2.87247
G1 X105.279 Y83.094 E2.89972
G1 X105.652 Y82.305 E2.92673
G1 X106.101 Y81.556 E2.95374
G1 X106.621 Y80.855 E2.98075
G1 X107.213 Y80.203 E3.00800
G1 X107.855 Y79.622 E3.03480
G1 X108.556 Y79.101 E3.06182
G1 X109.305 Y78.652 E3.08884
G1 X110.095 Y78.279 E3.11586
G1 X113.500 Y77.061 E3.22776
G1 X116.905 Y78.279 E3.33967
G1 X117.695 Y78.652 E3.36669
G1 X118.444 Y79.101 E3.39370
G1 X119.145 Y79.622 E3.42072
G1 X119.792 Y80.208 E3.44774
G1 X120.378 Y80.855 E3.47476
G1 X120.899 Y81.556 E3.50178
G1 X121.348 Y82.305 E3.52880
G1 X121.721 Y83.095 E3.55582
G1 X122.939 Y86.500 E3.66772
G1 X122.128 Y88.767 E3.74221
G1 E1.74221 F2400.00000
G92 E0
G1 X130.900 Y90.100 F7800.000
G1 E2.00000 F2400.00000
G1 F1800
G1 X130.900 Y88.640 E2.04518
G1 X129.881 Y88.539 E2.07685
G1 X129.148 Y88.147 E2.10258
G1 X128.621 Y87.505 E2.12831
G1 X128.379 Y86.709 E2.15404
G1 X128.461 Y85.881 E2.17977
G1 X128.853 Y85.148 E2.20549
G1 X129.495 Y84.621 E2.23122
G1 X130.291 Y84.379 E2.25695
G1 X130.900 Y84.439 E2.27589
G1 X130.900 Y82.900 E2.32351
G1 X136.100 Y82.900 E2.48439
G1 X136.100 Y84.360 E2.52956
G1 X137.119 Y84.461 E2.56124
G1 X137.852 Y84.853 E2.58697
G1 X138.380 Y85.495 E2.61270
G1 X138.621 Y86.291 E2.63843
G1 X138.539 Y87.119 E2.66415
G1 X138.147 Y87.852 E2.68988
G1 X137.505 Y88.379 E2.71561
G1 X136.709 Y88.621 E2.74134
G1 X136.100 Y88.561 E2.76028
G1 X136.100 Y90.100 E2.80789
G1 X130.975 Y90.100 E2.96645
G1 X131.525 Y89.475 F7800.000
G1 F1800
G1 X131.525 Y87.554 E3.02588
G1 X131.204 Y87.818 E3.03872
G1 X130.646 Y87.987 E3.05676
G1 X130.066 Y87.930 E3.07480
G1 X129.552 Y87.655 E3.09283
G1 X129.182 Y87.204 E3.11087
G1 X129.013 Y86.646 E3.12891
G1 X129.070 Y86.066 E3.14694
G1 X129.345 Y85.552 E3.16498
G1 X129.796 Y85.182 E3.18301
G1 X130.354 Y85.013 E3.20105
G1 X130.934 Y85.070 E3.21909
G1 X131.525 Y85.386 E3.23984
G1 X131.525 Y83.525 E3.29743
G1 X135.475 Y83.525 E3.41964
G1 X135.475 Y85.446 E3.47907
G1 X135.796 Y85.182 E3.49191
G1 X136.354 Y85.013 E3.50995
G1 X136.934 Y85.070 E3.52798
G1 X137.448 Y85.345 E3.54602
G1 X137.818 Y85.796 E3.56406
G1 X137.987 Y86.354 E3.58209
G1 X137.930 Y86.934 E3.60013
G1 X137.655 Y87.448 E3.61817
G1 X137.204 Y87.818 E3.63620
G1 X136.646 Y87.987 E3.65424
G1 X136.066 Y87.930 E3.67228
G1 X135.475 Y87.614 E3.69303
G1 X135.475 Y89.475 E3.75062
G1 X131.600 Y89.475 E3.87051
G1 X132.150 Y88.850 F7800.000
G1 F1800
G1 X132.150 Y84.150 E4.01593
G1 X134.850 Y84.150 E4.09948
G1 X134.850 Y88.850 E4.24490
G1 X132.225 Y88.850 E4.32612
G1 X131.680 Y89.021 F7800.000
G1 E2.32612 F2400.00000
G92 E0
G1 X130.904 Y87.256 F7800.000
G1 E2.00000 F2400.00000
G1 F1800
G1 X130.584 Y87.353 E2.01035
G1 X130.251 Y87.320 E2.02069
G1 X129.956 Y87.162 E2.03103
G1 X129.744 Y86.904 E2.04138
G1 X129.647 Y86.584 E2.05172
G1 X129.680 Y86.251 E2.06207
G1 X129.838 Y85.956 E2.07241
G1 X130.096 Y85.744 E2.08276
G1 X130.416 Y85.647 E2.09310
G1 X130.749 Y85.680 E2.10345
G1 X131.044 Y85.838 E2.11379
G1 X131.256 Y86.096 E2.12414
G1 X131.353 Y86.416 E2.13448
G1 X131.320 Y86.749 E2.14482
G1 X131.162 Y87.044 E2.15517
G1 X130.962 Y87.208 E2.16319
G1 X130.904 Y87.256 F7800.000
G1 E0.16319 F2400.00000
G92 E0
G1 X135.647 Y86.584 F7800.000
G1 E2.00000 F2400.00000
G1 F1800
G1 X135.680 Y86.251 E2.01034
G1 X135.838 Y85.956 E2.02069
G1 X136.096 Y85.744 E2.03103
G1 X136.416 Y85.647 E2.04138
G1 X136.749 Y85.680 E2.05172
G1 X137.044 Y85.838 E2.06207
G1 X137.256 Y86.096 E2.07241
G1 X137.353 Y86.416 E2.08276
G1 X137.320 Y86.749 E2.09310
G1 X137.162 Y87.044 E2.10345
G1 X136.904 Y87.256 E2.11379
G1 X136.584 Y87.353 E2.12413
G1 X136.251 Y87.320 E2.13448
G1 X135.956 Y87.162 E2.14482
G1 X135.744 Y86.904 E2.15517
G1 X135.669 Y86.656 E2.16319
G1 X135.647 Y86.584 F7800.000
G1 E0.16319 F2400.00000
G92 E0
G1 X142.378 Y86.915 F7800.000
G1 E2.00000 F2400.00000
G1 F1800
G1 X142.355 Y87.372 E2.01417
G1 X142.227 Y88.236 E2.04119
G1 X142.015 Y89.083 E2.06821
G1 X141.721 Y89.905 E2.09523
G1 X141.351 Y90.688 E2.12204
G1 X140.898 Y91.444 E2.14929
G1 X140.378 Y92.145 E2.17629
G1 X139.792 Y92.792 E2.20331
G1 X139.145 Y93.378 E2.23033
G1 X138.444 Y93.899 E2.25735
G1 X137.695 Y94.348 E2.28436
G1 X136.905 Y94.721 E2.31138
G1 X136.083 Y95.015 E2.33840
G1 X135.236 Y95.227 E2.36542
G1 X134.372 Y95.355 E2.39244
G1 X133.500 Y95.398 E2.41946
G1 X132.628 Y95.355 E2.44648
G1 X131.764 Y95.227 E2.47350
G1 X130.917 Y95.015 E2.50052
G1 X130.095 Y94.721 E2.52754
G1 X129.305 Y94.348 E2.55456
G1 X128.556 Y93.899 E2.58157
G1 X127.855 Y93.378 E2.60859
G1 X127.208 Y92.792 E2.63561
G1 X126.622 Y92.145 E2.66263
G1 X126.101 Y91.444 E2.68965
G1 X125.652 Y90.695 E2.71667
G1 X125.279 Y89.905 E2.74369
G1 X124.061 Y86.500 E2.85559
G1 X125.279 Y83.095 E2.96750
G1 X125.652 Y82.305 E2.99452
G1 X126.101 Y81.556 E3.02153
G1 X126.622 Y80.855 E3.04855
G1 X127.208 Y80.208 E3.07557
G1 X127.855 Y79.622 E3.10259
G1 X128.556 Y79.101 E3.12961
G1 X129.305 Y78.652 E3.15663
G1 X130.095 Y78.279 E3.18365
G1 X133.500 Y77.061 E3.29555
G1 X136.905 Y78.279 E3.40746
G1 X137.695 Y78.652 E3.43448
